material/.icons/material/email-check-outline.svg

<svg xmlns="http://www.w3.org/2000/svg" viewBox="0 0 24 24"><path d="M23.5 17l-5 5-3.5-3.5 1.5-1.5 2 2 3.5-3.5 1.5 1.5M13 18H3V8l8 5 8-5v5h2V6c0-1.1-.9-2-2-2H3c-1.1 0-2 .9-2 2v12c0 1.1.9 2 2 2h10v-2m6-12l-8 5-8-5h16z"/></svg>

<?xml version="1.0" encoding="UTF-8"?><!DOCTYPE svg PUBLIC "-//W3C//DTD SVG 1.1//EN" "http://www.w3.org/Graphics/SVG/1.1/DTD/svg11.dtd"><svg xmlns="http://www.w3.org/2000/svg" xmlns:xlink="http://www.w3.org/1999/xlink" version="1.1" id="mdi-email-check-outline" width="24" height="24" viewBox="0 0 24 24"><path d="M23.5 17L18.5 22L15 18.5L16.5 17L18.5 19L22 15.5L23.5 17M13 18H3V8L11 13L19 8V13H21V6C21 4.9 20.1 4 19 4H3C1.9 4 1 4.9 1 6V18C1 19.1 1.9 20 3 20H13V18M19 6L11 11L3 6H19Z" /></svg>
